X:1
T:Title
%%score { ( 1 3 ) | 2 }
L:1/8
M:6/4
K:G
V:1 treble nm="Grand Piano"
V:3 treble 
V:2 bass 
V:1
 z6 z4[Q:1/4=100] D2 | z6 .G6 | [Fc]2 [Fd]3 [Fc] [Ac]2 B3 D | E2 [EG]2 [CE]2 [B,D]2 [DG]2 [FA]2 | %4
 B2 A2 G2 A4 D2 | z6 .G6 | [Fc]2 [Fd]3 [Fc] [Ac]2 B3 B | A2 d2 F2 A2 A2 [EG]2 | %8
[M:5/4] [DF]2 [DF]2 [^CE]2 D4 |[M:1/4] D2 |[M:6/4] D2 F2 [FA]2 [Fc]2 [Fc]3 F | G2 B2 e2 d4 B2 | %12
 B3 [FA] G2 G2 F2 G2 | [EA]2 [EG]2 [EA]2 [^DB]4 =D2 | z6 .G6 | [Fc]2 [Fd]3 [Ac] B4 D2 | %16
[M:13/8] E2 [EG]2 [CE]2 [CE]2 [B,D]3 [B,G]2 | A2 B3 A2 [B,G]-[B,G]-[B,G]- [B,G]3 |] %18
V:2
 z6 z4 [D,F,]2 | [D,F,]2 [D,G,^C]2 [D,A,=C]2 .[G,B,]2[K:treble] [G,CD]2 [G,DG]2 | %2
 [D,D]2 [D,D]3 [D,D][K:treble] [G,D]2 [G,DG]3[K:bass] [G,B,] | %3
 [C,G,C]2 [C,G,]2 [C,G,]2 [G,,G,]2 [B,,G,]2 [D,D]2 | [G,DG]2 [F,A,]2 [E,A,^C]2 [D,F,D]4 [D,F,]2 | %5
 [D,F,]2 [D,G,^C]2 [D,A,=C]2 .[G,B,]2[K:treble] [G,CD]2 [G,DG]2 | %6
 [D,C]2 [D,D]3 [D,C][K:treble] [G,D]2 [G,DG]3 [G,DG] | %7
 [A,DF]2 [A,DF]2 [A,D]2 [A,DF]2 [A,DF]2[K:bass] [A,,A,]2 | %8
[M:5/4] [A,,A,]2 [A,,A,]2 [A,,G,]2 [D,F,]4 |[M:1/4] [D,F,]2 | %10
[M:6/4] [D,F,]2 [D,A,D]2 [D,C]2 [D,A,]2 [D,A,]3 [D,CD] | %11
 [G,B,D]2 [G,DG]2 [G,CG]2 [G,B,G]4 [G,DG]2 | %12
 [G,DG]3[K:bass] [D,C] [E,B,]2 [E,B,E]2 [E,B,E]2 [E,B,E]2 | %13
 [C,C]2 [C,C]2 [C,E,]2 [B,,F,]4 [D,F,]2 | %14
 [D,F,]2 [D,G,^C]2 [D,A,=C]2 .[G,B,]2[K:treble] [G,CD]2 [G,DG]2 | %15
 [D,D]2 [D,D]3 [D,D][K:treble] [G,DG]4 [G,B,]2 | %16
[M:13/8][K:bass] [C,C]2 [C,G,]2 [C,G,]2 [G,,G,]2 [G,,G,]3 [G,,G,]2 | %17
 [D,F,C]2 [D,F,D]3 [D,F,C]2 [G,,G,]-[G,,G,]-[G,,G,]- [G,,G,]3 |] %18
V:3
 x12 | D2 E2 F2 z D A2 B2 | x12 | x12 | x12 | D2 E2 F2 z D A2 B2 | x12 | x12 |[M:5/4] x10 | %9
[M:1/4] x2 |[M:6/4] x12 | x12 | x12 | x12 | D2 E2 F2 z D A2 B2 | x12 |[M:13/8] x13 | x13 |] %18

